public/logo.svg

<?xml version="1.0" encoding="UTF-8"?>
<svg id="Camada_2" data-name="Camada 2" xmlns="http://www.w3.org/2000/svg" viewBox="0 0 167.05 44">
  <defs>
    <style>
      .cls-1 {
        fill: #efefef;
      }
    </style>
  </defs>
  <g id="Camada_1-2" data-name="Camada 1">
    <g>
      <path class="cls-1" d="M51.08,0c-12.13,0-22,9.87-22,22v.3h7.15c-.16,7.61-6.32,13.77-13.94,13.93-.11-12.04-9.93-21.8-21.99-21.8h-.3v7.76h.3c7.85,0,14.24,6.39,14.24,14.24v.38h7.15v7.18h.3c12.13,0,22-9.87,22-22v-.3h-7.15c.16-7.71,6.48-13.94,14.23-13.94h.3V0h-.3ZM15.15,36.21c-.16-7.95-6.59-14.46-14.54-14.62v-6.54c11.55.16,20.92,9.61,21.09,21.17h-6.54ZM22.3,43.39v-6.54c7.95-.16,14.38-6.59,14.54-14.54h6.54c-.16,11.55-9.53,20.92-21.09,21.09ZM50.78,7.15c-7.95.16-14.38,6.59-14.54,14.54h-6.54c.16-11.55,9.53-20.92,21.09-21.09v6.54Z"/>
      <g>
        <g>
          <path class="cls-1" d="M71.88,36.49l1.25-3.14h.34l1.25,3.14h-.36l-1.09-2.82h.07s-1.09,2.82-1.09,2.82h-.37ZM72.43,35.51l.15-.32h1.54l.02.32h-1.71Z"/>
          <path class="cls-1" d="M77.42,36.54c-.32,0-.59-.06-.8-.18s-.38-.3-.49-.54c-.11-.24-.16-.54-.16-.9s.05-.66.16-.89.27-.42.49-.54.48-.18.8-.18c.17,0,.34.02.51.05.17.03.33.09.48.16v.35c-.15-.07-.3-.12-.46-.17-.16-.05-.32-.07-.49-.07-.26,0-.48.05-.65.14s-.3.23-.38.42c-.08.19-.12.43-.12.73s.04.54.12.73c.08.19.21.33.38.43.17.09.39.14.65.14.13,0,.25,0,.37-.03.12-.02.24-.05.35-.08v-.89h-.76v-.33h1.1v1.42c-.17.08-.35.14-.53.18-.18.04-.37.06-.56.06Z"/>
          <path class="cls-1" d="M80.25,36.49v-3.14h1.98v.32h-1.64v1.08h1.44v.33h-1.44v1.09h1.64v.32h-1.98Z"/>
          <path class="cls-1" d="M83.93,36.49v-3.14h.39l1.96,2.76-.08.13v-2.89h.34v3.14h-.38l-2.03-2.87.16-.15v3.01h-.34Z"/>
          <path class="cls-1" d="M89.58,36.53c-.48,0-.85-.14-1.09-.4-.24-.27-.36-.67-.36-1.2s.12-.94.36-1.2c.24-.27.61-.4,1.09-.4.17,0,.33.02.49.06s.32.1.47.17v.32c-.14-.08-.29-.14-.45-.18-.15-.04-.31-.06-.47-.06-.26,0-.48.05-.65.14-.17.09-.29.23-.37.42-.08.19-.12.43-.12.73s.04.54.12.73c.08.19.2.33.37.42s.38.14.65.14c.16,0,.32-.02.47-.06.15-.04.3-.1.45-.17v.32c-.1.05-.2.09-.31.12-.11.03-.21.06-.32.08s-.22.03-.33.03Z"/>
          <path class="cls-1" d="M92.14,36.49v-3.14h.34v3.14h-.34Z"/>
          <path class="cls-1" d="M93.91,36.49l1.25-3.14h.34l1.25,3.14h-.36l-1.09-2.82h.07s-1.09,2.82-1.09,2.82h-.37ZM94.46,35.51l.15-.32h1.54l.02.32h-1.71Z"/>
          <path class="cls-1" d="M98.18,36.49v-3.14h.37l1.16,1.78-.23.05,1.23-1.84h.37v3.14h-.34v-2.8h.15l-1.29,1.82-1.2-1.78.12-.17v2.94h-.34Z"/>
          <path class="cls-1" d="M102.82,36.49v-3.14h1.98v.32h-1.64v1.08h1.44v.33h-1.44v1.09h1.64v.32h-1.98Z"/>
          <path class="cls-1" d="M106.49,36.49v-3.14h.39l1.96,2.76-.08.13v-2.89h.34v3.14h-.38l-2.03-2.87.16-.15v3.01h-.34Z"/>
          <path class="cls-1" d="M111.63,36.49v-2.82h-1.11v-.32h2.56v.32h-1.11v2.82h-.34Z"/>
          <path class="cls-1" d="M115.73,36.54c-.31,0-.57-.06-.78-.18s-.37-.3-.47-.54-.16-.54-.16-.89c0-.53.12-.94.36-1.21.24-.27.59-.41,1.05-.41.31,0,.57.06.78.18.21.12.37.3.47.54.11.24.16.54.16.89,0,.53-.12.94-.36,1.21s-.59.41-1.06.41ZM115.73,36.22c.25,0,.45-.05.61-.14.16-.09.27-.23.35-.42s.11-.44.11-.73-.04-.54-.11-.73c-.07-.19-.19-.33-.35-.42-.16-.09-.36-.14-.61-.14s-.45.05-.6.14-.27.23-.35.42c-.07.19-.11.43-.11.73s.04.54.11.73.19.33.35.42.36.14.6.14Z"/>
          <path class="cls-1" d="M120.77,36.49l1.25-3.14h.34l1.25,3.14h-.36l-1.09-2.82h.07s-1.09,2.82-1.09,2.82h-.37ZM121.32,35.51l.15-.32h1.54l.02.32h-1.71Z"/>
          <path class="cls-1" d="M125.04,36.49v-3.14h1.29c.31,0,.54.08.69.23.16.15.23.38.23.68,0,.18-.04.34-.11.48s-.18.25-.32.33c-.14.08-.29.12-.48.12l.14-.09.9,1.38h-.4l-.93-1.44.17.17h-.86v1.27h-.34ZM125.38,34.91h.8c.26,0,.45-.05.57-.16.12-.11.18-.26.18-.46,0-.19-.04-.34-.13-.45s-.25-.17-.49-.17h-.91v1.23Z"/>
          <path class="cls-1" d="M129.68,36.49v-2.82h-1.11v-.32h2.56v.32h-1.11v2.82h-.34Z"/>
          <path class="cls-1" d="M132.56,36.49v-3.14h.34v3.14h-.34ZM132.65,33.05l.27-.54h.35l-.39.54h-.23Z"/>
          <path class="cls-1" d="M135.53,36.54c-.16,0-.29-.01-.4-.03-.11-.02-.21-.05-.3-.09s-.18-.09-.29-.14v-.37c.1.08.24.16.4.23.17.07.37.1.59.1.24,0,.41-.05.52-.15.11-.1.16-.23.16-.39,0-.13-.04-.24-.11-.32s-.16-.15-.28-.2c-.11-.05-.23-.1-.36-.15-.11-.04-.21-.08-.32-.12s-.2-.1-.28-.16-.15-.15-.2-.25c-.05-.1-.08-.23-.08-.38,0-.08.02-.17.05-.27.03-.09.09-.18.16-.26.07-.08.17-.15.3-.2.12-.05.28-.08.45-.08.12,0,.23,0,.31.03.09.02.17.04.25.08.08.03.17.07.26.12v.35c-.08-.05-.16-.09-.23-.13-.07-.04-.15-.07-.24-.09s-.2-.04-.33-.04c-.15,0-.28.02-.37.07-.09.04-.16.1-.2.17s-.06.15-.06.23c0,.13.03.23.09.31s.14.14.24.19c.11.05.23.1.36.14.11.04.22.08.33.12.11.05.21.1.3.17.09.07.16.15.22.25.05.1.08.23.08.38,0,.14-.03.28-.09.42-.06.14-.17.25-.32.34-.15.09-.36.13-.63.13Z"/>
          <path class="cls-1" d="M139,36.49v-2.82h-1.11v-.32h2.56v.32h-1.11v2.82h-.34Z"/>
          <path class="cls-1" d="M141.88,36.49v-3.14h.34v3.14h-.34Z"/>
          <path class="cls-1" d="M145.27,36.53c-.48,0-.85-.14-1.09-.4-.24-.27-.36-.67-.36-1.2s.12-.94.36-1.2c.24-.27.61-.4,1.09-.4.17,0,.33.02.49.06s.32.1.47.17v.32c-.14-.08-.29-.14-.45-.18-.15-.04-.31-.06-.47-.06-.26,0-.48.05-.65.14-.17.09-.29.23-.37.42-.08.19-.12.43-.12.73s.04.54.12.73c.08.19.2.33.37.42s.38.14.65.14c.16,0,.32-.02.47-.06.15-.04.3-.1.45-.17v.32c-.1.05-.2.09-.31.12-.1.03-.21.06-.32.08s-.22.03-.33.03Z"/>
          <path class="cls-1" d="M149.12,36.54c-.31,0-.57-.06-.78-.18s-.37-.3-.47-.54-.16-.54-.16-.89c0-.53.12-.94.36-1.21.24-.27.59-.41,1.05-.41.31,0,.57.06.78.18.21.12.37.3.47.54.11.24.16.54.16.89,0,.53-.12.94-.36,1.21s-.59.41-1.06.41ZM149.12,36.22c.25,0,.45-.05.61-.14.16-.09.27-.23.35-.42s.11-.44.11-.73-.04-.54-.11-.73c-.07-.19-.19-.33-.35-.42-.16-.09-.36-.14-.61-.14s-.45.05-.6.14c-.16.09-.27.23-.35.42-.07.19-.11.43-.11.73s.04.54.11.73c.07.19.19.33.35.42.16.09.36.14.6.14Z"/>
        </g>
        <g>
          <path class="cls-1" d="M62.54,26.76l-6.27-12.28-.02-.04h-.89l.06.11c.19.37,2.3,4.51,7.06,13.81l.07.13.07-.13c.31-.62,1.45-2.87,3.49-6.87l3.6-7.05h-.89l-6.27,12.32Z"/>
          <path class="cls-1" d="M78.95,14.44c-1.86,0-3.47.66-4.8,1.98-1.32,1.32-2,2.94-2,4.82s.67,3.96,2,5.27c1.32,1.32,2.94,2,4.8,2,1.08,0,2.12-.25,3.07-.73.95-.48,1.76-1.17,2.4-2.03l.04-.06-.63-.47-.04.06c-.56.77-1.27,1.38-2.12,1.8s-1.76.64-2.72.64c-1.64,0-3.07-.59-4.24-1.76-1.06-1.06-1.65-2.82-1.76-4.31h12.8v-.4c0-1.87-.67-3.49-2-4.82-1.32-1.31-2.94-1.98-4.82-1.98ZM72.96,20.84c.1-1.5.69-2.79,1.76-3.86,1.16-1.17,2.58-1.76,4.24-1.76s3.08.59,4.25,1.76c1.06,1.06,1.65,2.36,1.74,3.86h-11.98Z"/>
          <path class="cls-1" d="M96.96,14.44c-1.86,0-3.47.66-4.8,1.98-.48.48-.89,1.03-1.2,1.63v-3.6h-.8v14.06h.8v-7.32c.01-1.63.6-3.04,1.76-4.2,1.16-1.17,2.58-1.76,4.23-1.76,1,0,2.03.28,3.08.84l.07.04.37-.7-.07-.03c-1.17-.61-2.33-.92-3.45-.92Z"/>
          <path class="cls-1" d="M109.29,14.44c-1.86,0-3.47.66-4.8,1.98-1.32,1.32-1.99,2.94-1.99,4.82s.67,3.96,1.99,5.27c1.32,1.32,2.94,2,4.8,2,1.08,0,2.12-.25,3.07-.73.96-.48,1.76-1.17,2.4-2.03l.04-.06-.63-.47-.04.06c-.56.77-1.27,1.38-2.12,1.8-.85.42-1.76.64-2.72.64-1.64,0-3.07-.59-4.23-1.76-1.06-1.06-1.65-2.82-1.76-4.31h12.8v-.4c0-1.87-.67-3.49-2-4.82-1.32-1.31-2.94-1.98-4.82-1.98ZM103.3,20.84c.1-1.5.69-2.79,1.76-3.86,1.16-1.17,2.58-1.76,4.23-1.76s3.09.59,4.25,1.76c1.06,1.06,1.65,2.36,1.74,3.86h-11.98Z"/>
          <path class="cls-1" d="M132.55,18.05c-.31-.6-.72-1.14-1.2-1.63-1.32-1.31-2.95-1.98-4.82-1.98s-3.47.66-4.8,1.98c-1.32,1.32-2,2.94-2,4.82s.67,3.96,2,5.27c1.32,1.32,2.94,2,4.8,2s3.49-.67,4.82-2c.47-.47.88-1.02,1.2-1.62v3.61h.8V7.46h-.8v10.59ZM130.79,16.98c1.17,1.17,1.76,2.6,1.76,4.25s-.59,3.55-1.76,4.71c-1.17,1.17-2.6,1.76-4.25,1.76s-3.07-.59-4.24-1.76c-1.17-1.16-1.76-3.05-1.76-4.71s.59-3.08,1.76-4.25h0c1.16-1.17,2.58-1.76,4.23-1.76s3.09.59,4.25,1.76Z"/>
          <path class="cls-1" d="M150.56,18.05c-.31-.6-.72-1.14-1.2-1.63h0c-1.32-1.31-2.95-1.98-4.82-1.98s-3.47.66-4.8,1.98c-1.32,1.32-2,2.94-2,4.82s.67,3.96,2,5.27c1.32,1.32,2.94,2,4.8,2s3.49-.67,4.82-2c.47-.47.88-1.02,1.2-1.62v3.61h.8v-14.06h-.8v3.6ZM148.8,16.98c1.17,1.17,1.76,2.6,1.76,4.25s-.59,3.55-1.76,4.71c-1.17,1.17-2.6,1.76-4.25,1.76s-3.07-.59-4.24-1.76c-1.17-1.16-1.76-3.05-1.76-4.71s.59-3.08,1.76-4.25c1.16-1.17,2.58-1.76,4.23-1.76s3.09.59,4.25,1.76Z"/>
          <path class="cls-1" d="M166.55,23.03c-.33-.44-.78-.79-1.33-1.04-.55-.25-1.16-.44-1.83-.59-.66-.14-1.34-.28-2-.4-.67-.12-1.28-.29-1.83-.48-.55-.2-1.01-.49-1.35-.87-.34-.39-.51-.91-.51-1.55,0-.8.34-1.49,1-2.05.66-.55,1.73-.83,3.17-.83.78,0,1.55.11,2.29.32.73.21,1.38.54,1.93.98l.43-.66c-.51-.42-1.2-.76-2.05-1.01-.86-.26-1.72-.39-2.57-.39-1.15,0-2.11.17-2.85.52-.74.34-1.3.8-1.66,1.34-.36.55-.54,1.15-.54,1.8,0,.76.17,1.37.5,1.83.33.46.78.82,1.33,1.08.55.26,1.17.46,1.84.61.67.15,1.35.29,2.02.4.67.12,1.28.27,1.83.47.55.2,1.01.48,1.34.83.34.36.51.86.51,1.49,0,.86-.35,1.57-1.04,2.1-.69.54-1.82.81-3.37.81-1.09,0-2.09-.18-2.97-.54-.88-.35-1.58-.76-2.1-1.22l-.4.66c.51.52,1.27.96,2.25,1.3.99.34,2.07.52,3.2.52s2.15-.15,2.92-.45c.77-.3,1.36-.73,1.75-1.29.4-.55.6-1.19.6-1.9,0-.76-.17-1.36-.5-1.8Z"/>
        </g>
      </g>
    </g>
  </g>
</svg>

<svg width="52" height="44" viewBox="0 0 52 44" fill="none" xmlns="http://www.w3.org/2000/svg">
<path d="M51.08 0C38.95 0 29.08 9.87 29.08 22V22.3H36.23C36.07 29.91 29.91 36.07 22.29 36.23C22.18 24.19 12.36 14.43 0.3 14.43H0V22.19H0.3C8.15 22.19 14.54 28.58 14.54 36.43V36.81H21.69V43.99H21.99C34.12 43.99 43.99 34.12 43.99 21.99V21.69H36.84C37 13.98 43.32 7.75 51.07 7.75H51.37V0H51.07H51.08ZM15.15 36.21C14.99 28.26 8.56 21.75 0.61 21.59V15.05C12.16 15.21 21.53 24.66 21.7 36.22H15.16L15.15 36.21ZM22.3 43.39V36.85C30.25 36.69 36.68 30.26 36.84 22.31H43.38C43.22 33.86 33.85 43.23 22.29 43.4L22.3 43.39ZM50.78 7.15C42.83 7.31 36.4 13.74 36.24 21.69H29.7C29.86 10.14 39.23 0.77 50.79 0.6V7.14L50.78 7.15Z" fill="#000000"/>
</svg>
